storage/app/icons/phosphoricons/duotone/globe-simple-duotone.svg

<svg xmlns="http://www.w3.org/2000/svg" fill="currentColor" viewBox="0 0 256 256"><path d="M224 128a96 96 0 1 1-96-96 96 96 0 0 1 96 96" opacity=".2"/><path d="M128 24a104 104 0 1 0 104 104A104.12 104.12 0 0 0 128 24m87.62 96h-39.83c-1.79-36.51-15.85-62.33-27.38-77.6a88.19 88.19 0 0 1 67.22 77.6ZM96.23 136h63.54c-2.31 41.61-22.23 67.11-31.77 77-9.55-9.9-29.46-35.4-31.77-77m0-16c2.31-41.61 22.23-67.11 31.77-77 9.55 9.93 29.46 35.43 31.77 77Zm11.36-77.6C96.06 57.67 82 83.49 80.21 120H40.37a88.19 88.19 0 0 1 67.22-77.6M40.37 136h39.84c1.82 36.51 15.85 62.33 27.38 77.6A88.19 88.19 0 0 1 40.37 136m108 77.6c11.53-15.27 25.56-41.09 27.38-77.6h39.84a88.19 88.19 0 0 1-67.18 77.6Z"/></svg>

<svg xmlns="http://www.w3.org/2000/svg" viewBox="0 0 256 256" fill="currentColor"><path d="M224,128a96,96,0,1,1-96-96A96,96,0,0,1,224,128Z" opacity="0.2"/><path d="M128,24h0A104,104,0,1,0,232,128,104.12,104.12,0,0,0,128,24Zm87.62,96H175.79C174,83.49,159.94,57.67,148.41,42.4A88.19,88.19,0,0,1,215.63,120ZM96.23,136h63.54c-2.31,41.61-22.23,67.11-31.77,77C118.45,203.1,98.54,177.6,96.23,136Zm0-16C98.54,78.39,118.46,52.89,128,43c9.55,9.93,29.46,35.43,31.77,77Zm11.36-77.6C96.06,57.67,82,83.49,80.21,120H40.37A88.19,88.19,0,0,1,107.59,42.4ZM40.37,136H80.21c1.82,36.51,15.85,62.33,27.38,77.6A88.19,88.19,0,0,1,40.37,136Zm108,77.6c11.53-15.27,25.56-41.09,27.38-77.6h39.84A88.19,88.19,0,0,1,148.41,213.6Z"/></svg>
